X:0393
M:6/8
L:1/8
Q:3/8=120
K:D
  d2f e2g|f2d g2b|agf edc|d3  d2||
f|afd afd|A2d f2a|g2f e2d|cec A2A|
  dfa afd|ege g2b|agf edc|d3  d2:|

